assets/awselasticfilesystemefsstandard/original.svg

<svg height="48" viewBox="0 0 48 48" width="48" xmlns="http://www.w3.org/2000/svg"><path d="m41 40v-22.346c0-1.76-.891-3.654-2.846-3.654h-2.154v2h2.154c.796 0 .846 1.641.846 1.654v21.346h-35v-21.336c.008-.391.166-1.664 1.846-1.664h1.154v-2h-1.154c-2.822 0-3.846 2.185-3.846 3.654v22.346a1 1 0 0 0 1 1h37a1 1 0 0 0 1-1m-15.653-25c0-.693.229-2.29.465-3h4.188v-2h-4.743a1 1 0 0 0 -.531.153c-.873.548-1.198 2.595-1.315 3.847h-10.411v2h11.347a1 1 0 0 0 1-1m-1.347 18c0 1.103.897 2 2 2s2-.897 2-2-.897-2-2-2-2 .897-2 2m-2 0c0-2.206 1.794-4 4-4s4 1.794 4 4-1.794 4-4 4-4-1.794-4-4m4.437-8-1.826-3.391-1.826 3.391zm1.674 2h-7a1 1 0 0 1 -.881-1.474l3.5-6.5c.35-.648 1.413-.648 1.762 0l3.5 6.5a1.002 1.002 0 0 1 -.881 1.474m-16.111 5h3v-3h-3zm4-5a1 1 0 0 1 1 1v5a1 1 0 0 1 -1 1h-5a1 1 0 0 1 -1-1v-5a1 1 0 0 1 1-1zm27.079-6.996-.1 1.997a1.086 1.086 0 0 1 1.021 1.073v20.926h-35v-1h-2v2.001a1 1 0 0 0 1 .999h37a1 1 0 0 0 1-1v-21.926a3.07 3.07 0 0 0 -2.921-3.07m-23.079-14.603v6.599h2v-6.573l1.296 1.283 1.408-1.42-3.029-3a1 1 0 0 0 -.704-.29h-.005a1 1 0 0 0 -.706.296l-2.971 3 1.422 1.408zm-13.717 13.296 2.986 3.07a1 1 0 0 0 .713.302h.003c.269 0 .526-.108.714-.299l3.015-3.069-1.428-1.402-1.286 1.31v-8.609h-2v8.622l-1.283-1.319zm24.424-1.404 1.293 1.293v-8.586h2v8.586l1.293-1.293 1.414 1.414-3 3a.997.997 0 0 1 -1.414 0l-3-3z" fill="#7aa116" fill-rule="evenodd"/></svg>

<svg xmlns="http://www.w3.org/2000/svg" width="48" height="48" viewBox="0 0 48 48"><title>Icon-Resource/Storage/Res_Amazon-Elastic-File-System_Standard_48</title><g id="Icon-Resource/Storage/Res_Amazon-Elastic-File-System_Standard_48" fill="none" fill-rule="evenodd" stroke="none" stroke-width="1"><path id="Fill-1" fill="#7aa116" d="M41 40V17.654c0-1.76-.891-3.654-2.846-3.654H36v2h2.154c.796 0 .846 1.641.846 1.654V39H4V17.664C4.008 17.273 4.166 16 5.846 16H7v-2H5.846C3.024 14 2 16.185 2 17.654V40a1 1 0 0 0 1 1h37a1 1 0 0 0 1-1M25.347 15c0-.693.229-2.29.465-3H30v-2h-4.743a1 1 0 0 0-.531.153c-.873.548-1.198 2.595-1.315 3.847H13v2h11.347a1 1 0 0 0 1-1M24 33c0 1.103.897 2 2 2s2-.897 2-2-.897-2-2-2-2 .897-2 2m-2 0c0-2.206 1.794-4 4-4s4 1.794 4 4-1.794 4-4 4-4-1.794-4-4m4.437-8-1.826-3.391L22.785 25zm1.674 2h-7a1 1 0 0 1-.881-1.474l3.5-6.5c.35-.648 1.413-.648 1.762 0l3.5 6.5A1.002 1.002 0 0 1 28.111 27M12 32h3v-3h-3zm4-5a1 1 0 0 1 1 1v5a1 1 0 0 1-1 1h-5a1 1 0 0 1-1-1v-5a1 1 0 0 1 1-1zm27.079-6.996-.1 1.997A1.086 1.086 0 0 1 44 23.074V44H9v-1H7v2.001A1 1 0 0 0 8 46h37a1 1 0 0 0 1-1V23.074a3.07 3.07 0 0 0-2.921-3.07M20 5.401V12h2V5.427l1.296 1.283 1.408-1.42-3.029-3a1 1 0 0 0-.704-.29h-.005a1 1 0 0 0-.706.296l-2.971 3 1.422 1.408zM6.283 18.697l2.986 3.07a1 1 0 0 0 .713.302h.003c.269 0 .526-.108.714-.299l3.015-3.069-1.428-1.402L11 18.609V10H9v8.622l-1.283-1.319zm24.424-1.404L32 18.586V10h2v8.586l1.293-1.293 1.414 1.414-3 3a.997.997 0 0 1-1.414 0l-3-3z"/></g></svg>
